polaris-icons/icons/new-icons/ImportMinor.svg

<svg width="20" height="20" viewBox="0 0 20 20" fill="none" xmlns="http://www.w3.org/2000/svg">
<path d="M10.75 4.25C10.75 3.83579 10.4142 3.5 10 3.5C9.58579 3.5 9.25 3.83579 9.25 4.25V10.9393L7.53033 9.21967C7.23744 8.92678 6.76256 8.92678 6.46967 9.21967C6.17678 9.51256 6.17678 9.98744 6.46967 10.2803L9.46967 13.2803C9.76256 13.5732 10.2374 13.5732 10.5303 13.2803L13.5303 10.2803C13.8232 9.98744 13.8232 9.51256 13.5303 9.21967C13.2374 8.92678 12.7626 8.92678 12.4697 9.21967L10.75 10.9393L10.75 4.25Z" fill="#4A4A4A"/>
<path d="M16.5 13.75C16.5 13.3358 16.1642 13 15.75 13C15.3358 13 15 13.3358 15 13.75V14.55C15 14.9642 14.6642 15.3 14.25 15.3L5.75 15.3C5.33579 15.3 5 14.9642 5 14.55L5 13.75C5 13.3358 4.66421 13 4.25 13C3.83579 13 3.5 13.3358 3.5 13.75V14.55C3.5 15.7926 4.50736 16.8 5.75 16.8L14.25 16.8C15.4926 16.8 16.5 15.7926 16.5 14.55V13.75Z" fill="#4A4A4A"/>
</svg>

<svg viewBox="0 0 20 20" xmlns="http://www.w3.org/2000/svg"><path d="M10.75 4.25a.75.75 0 0 0-1.5 0v6.69l-1.72-1.72a.75.75 0 0 0-1.06 1.06l3 3a.75.75 0 0 0 1.06 0l3-3a.75.75 0 1 0-1.06-1.06l-1.72 1.72v-6.69Z" fill="#5C5F62"/><path d="M16.5 13.75a.75.75 0 0 0-1.5 0v.8a.75.75 0 0 1-.75.75h-8.5a.75.75 0 0 1-.75-.75v-.8a.75.75 0 0 0-1.5 0v.8a2.25 2.25 0 0 0 2.25 2.25h8.5a2.25 2.25 0 0 0 2.25-2.25v-.8Z" fill="#5C5F62"/></svg>
